X:45
T:Ramnee Ceilidh
R:reel
C:Gordon Duncan
D:Flook : Rubai
M:C|
K:D
"G"dBBd "D"~A3f|fdgf "A"eAde|
"D"~f3a "A"~e3f|"Bm"~d3e dBAF|
"G"dBBd "D"~A3f|fdgf "A"eAde|
"D"~f3a "A"~e3f|1 "G"dBAB "D"d4:|2 "G"dBAB dABd||
"D"~f3A Bd"A"~e2|eABd edBd|"Bm"~f3A Bd"G"~e2|efgf
edBd|
"D"~f3A Bd"Em"~e2|eABd edBd|
"Bm"~f3a "A"~e3f|1 "G"dBAB dABd:|2 "G"dBAB "D"d4||
